X:36
T:Celebrated Set Of Quadrilles No.2. Le4.036
B:L.Leadley MS#4 c1850
Z:Village Music Project, 2016 Steve Mansfield
M:2/4
L:1/8
Q:2/4=60
K:G
Bc | dBBg | ecca | fddf | gbd B/c/ |
dBBg | ecca | fdef | g3 ||
g | fAcf | gBdg | eAcf | g2 z f |
f!tenuto!Acg | gceg | fAcf | g3 ||
z | z[Af]2 z | z [Bg]2 z | z[Af]2 z | z [Bg]2 z |
z[Af]2 z | z [Bg]2 z | z f2 z | z [Bg]2 z |]

